X:79
M:3/4
L:1/8
Q:1/4=120
K:D
d>e f3g|f>B B3^d|e>f e3c|d>e f3e|d>B A3G|F>G A3g|f>e d3c|
e>f g3b|a>g f3e|d>e f3g|f>B B3^d|e>f e3c|d>e f3e|d>B A3G|

